packages/core/src/svgs/ctg.svg

<svg width="24" height="24" viewBox="0 0 24 24" fill="none" xmlns="http://www.w3.org/2000/svg">
<g clip-path="url(#clip0_31_8830)">
<path d="M0 0H24V24H0V0Z" fill="#F0F3FA"/>
<path fill-rule="evenodd" clip-rule="evenodd" d="M19.2858 12.0001C19.2858 13.9324 18.5182 15.7855 17.1518 17.1518C15.7855 18.5182 13.9324 19.2858 12.0001 19.2858C10.0678 19.2858 8.21463 18.5182 6.84829 17.1518C5.48196 15.7855 4.71436 13.9324 4.71436 12.0001C4.71436 10.0678 5.48196 8.21463 6.84829 6.84829C8.21463 5.48196 10.0678 4.71436 12.0001 4.71436C13.9324 4.71436 15.7855 5.48196 17.1518 6.84829C18.5182 8.21463 19.2858 10.0678 19.2858 12.0001ZM17.5715 12.0001C17.5715 13.4777 16.9845 14.8948 15.9397 15.9397C14.8948 16.9845 13.4777 17.5715 12.0001 17.5715C10.5224 17.5715 9.10532 16.9845 8.06047 15.9397C7.01563 14.8948 6.42864 13.4777 6.42864 12.0001C6.42864 10.5224 7.01563 9.10532 8.06047 8.06047C9.10532 7.01563 10.5224 6.42864 12.0001 6.42864C13.4777 6.42864 14.8948 7.01563 15.9397 8.06047C16.9845 9.10532 17.5715 10.5224 17.5715 12.0001ZM7.71436 11.7858C7.78721 10.4315 8.75578 7.71436 12.0215 7.71436C12.8218 7.71615 13.6055 7.94242 14.2835 8.36744C14.9616 8.79246 15.5068 9.39918 15.8572 10.1186H14.2844C14.1429 9.89578 13.7358 9.4415 13.2772 9.4415C12.7029 9.4415 12.1972 10.1101 12.0215 10.5772L11.9829 10.6715C11.6038 11.6296 11.4216 12.6543 11.4472 13.6844C11.4472 15.4115 12.8786 16.6029 14.1386 14.9615C13.6072 14.8758 12.5401 14.5029 12.5401 13.6844C12.4972 13.4786 12.7201 13.0672 13.9372 13.0672C15.4544 13.0672 15.7458 13.5729 15.7458 13.9844C15.7458 14.3958 15.0901 16.2858 12.5401 16.2858C9.98578 16.2858 9.5615 14.0701 9.5615 12.8015C9.5615 11.7815 10.2301 10.3415 10.5644 9.74578C10.5944 9.68578 10.6072 9.58293 10.4186 9.65578C10.1829 9.7415 8.6315 10.8686 8.6315 12.6472C8.38878 12.3008 8.0764 12.0088 7.71436 11.7901V11.7858Z" fill="black"/>
</g>
<defs>
<clipPath id="clip0_31_8830">
<rect width="24" height="24" fill="white"/>
</clipPath>
</defs>
</svg>

<svg xmlns="http://www.w3.org/2000/svg" width="24" height="24" fill="none" viewBox="0 0 24 24"><g clip-path="url(#a)"><path fill="#F0F3FA" d="M0 0h24v24H0z"/><path fill="#000" fill-rule="evenodd" d="M19.286 12a7.285 7.285 0 1 1-14.57 0 7.285 7.285 0 0 1 14.57 0m-1.715 0a5.572 5.572 0 1 1-11.143 0 5.572 5.572 0 0 1 11.144 0m-9.857-.214c.073-1.354 1.042-4.072 4.307-4.072a4.28 4.28 0 0 1 3.836 2.405h-1.573c-.141-.223-.548-.678-1.007-.678-.574 0-1.08.67-1.255 1.136l-.04.095a7.7 7.7 0 0 0-.535 3.012c0 1.728 1.432 2.919 2.692 1.277-.532-.085-1.599-.458-1.599-1.277-.043-.205.18-.617 1.397-.617 1.517 0 1.809.506 1.809.917s-.656 2.302-3.206 2.302c-2.554 0-2.978-2.216-2.978-3.485 0-1.02.668-2.46 1.002-3.055.03-.06.043-.163-.145-.09-.236.085-1.787 1.213-1.787 2.991a3 3 0 0 0-.918-.857z" clip-rule="evenodd"/></g><defs><clipPath id="a"><path fill="#fff" d="M0 0h24v24H0z"/></clipPath></defs></svg>
